modules/hawcons-stroke/icons/file-key.svg

<?xml version="1.0" encoding="UTF-8" standalone="no"?>
<svg width="32px" height="32px" viewBox="0 0 32 32" version="1.1" xmlns="http://www.w3.org/2000/svg" xmlns:xlink="http://www.w3.org/1999/xlink" xmlns:sketch="http://www.bohemiancoding.com/sketch/ns">
    <!-- Generator: Sketch 3.0.3 (7891) - http://www.bohemiancoding.com/sketch -->
    <title>icon 10 file key</title>
    <desc>Created with Sketch.</desc>
    <defs></defs>
    <g id="Page-1" stroke="none" stroke-width="1" fill="none" fill-rule="evenodd" sketch:type="MSPage">
        <g id="icon-10-file-key" sketch:type="MSArtboardGroup" fill="#929292">
            <path d="M8.00684834,10 C6.34621185,10 5,11.3422643 5,12.9987856 L5,20.0012144 C5,21.6573979 6.33599155,23 8.00684834,23 L24.9931517,23 C26.6537881,23 28,21.6577357 28,20.0012144 L28,12.9987856 C28,11.3426021 26.6640085,10 24.9931517,10 L8.00684834,10 L8.00684834,10 Z M7.99456145,11 C6.89299558,11 6,11.9001762 6,12.992017 L6,20.007983 C6,21.1081436 6.90234375,22 7.99456145,22 L25.0054385,22 C26.1070044,22 27,21.0998238 27,20.007983 L27,12.992017 C27,11.8918564 26.0976562,11 25.0054385,11 L7.99456145,11 L7.99456145,11 Z M15,17 L15,19 L19,19 L19,20 L15,20 L14,20 L14,13 L15,13 L19,13 L19,14 L15,14 L15,16 L18,16 L18,17 L15,17 L15,17 Z M9,17.3000076 L9,20 L8,20 L8,13 L9,13 L9,15.6999957 L11.6999512,13 L13,13 L9.49999814,16.5000019 L13,20.0000124 L11.6999512,20.0000124 L9,17.3000076 L9,17.3000076 Z M23,17 L23,20 L22,20 L22,17 L20,14 L20,13 L21,13 L21,14 L22.5,16.25 L24,14 L24,13 L25,13 L25,14 L23,17 L23,17 Z" id="file-key" sketch:type="MSShapeGroup"></path>
        </g>
    </g>
</svg>

<svg width="32" height="32" viewBox="0 0 32 32" xmlns="http://www.w3.org/2000/svg"><path d="M8.007 10A3.003 3.003 0 0 0 5 12.999V20A2.996 2.996 0 0 0 8.007 23h16.986A3.003 3.003 0 0 0 28 20.001V13A2.996 2.996 0 0 0 24.993 10H8.007zm-.012 1C6.893 11 6 11.9 6 12.992v7.016A2 2 0 0 0 7.995 22h17.01C26.107 22 27 21.1 27 20.008v-7.016A2 2 0 0 0 25.005 11H7.995zM15 17v2h4v1h-5v-7h5v1h-4v2h3v1h-3zm-6 .3V20H8v-7h1v2.7l2.7-2.7H13l-3.5 3.5L13 20h-1.3L9 17.3zm14-.3v3h-1v-3l-2-3v-1h1v1l1.5 2.25L24 14v-1h1v1l-2 3z" fill="#929292" fill-rule="evenodd"/></svg>
